X:47
T:[untitled]
T:pretty
Z:Jack Campin - http://www.campin.me.uk
S:Blaikie MS (NLS MS.1578) p16, Blaikie #46
N:[Murdoch Henderson's writing:] Anon
M:6/8
L:1/8
V:1 midi program 1 74
V:2 midi program 1 46 bass middle = d transpose -24
Q:3/8=80
K:D Minor
[V:1] D/E/|F2D F2D|F2G A2A|d2e     fed|c2d A2
[V:2] z   |d2z d2z|d2z d2z|f2e     def|a3  a2
%
[V:1] A   |d2e fed|c2d A2G|A/=B/cB A2D|E3  D2|]
[V:2] g   |f2e def|a3  a2e|f3      f3 |a3  d2|]
W:Transcription (c) Jack Campin 2009, no mirroring or republication without permission

